data/audio-x-generic.svg

<?xml version="1.0" encoding="UTF-8" standalone="no"?>
<!-- Created with Inkscape (http://www.inkscape.org/) -->
<svg
   xmlns:dc="http://purl.org/dc/elements/1.1/"
   xmlns:cc="http://creativecommons.org/ns#"
   xmlns:rdf="http://www.w3.org/1999/02/22-rdf-syntax-ns#"
   xmlns:svg="http://www.w3.org/2000/svg"
   xmlns="http://www.w3.org/2000/svg"
   xmlns:xlink="http://www.w3.org/1999/xlink"
   xmlns:sodipodi="http://sodipodi.sourceforge.net/DTD/sodipodi-0.dtd"
   xmlns:inkscape="http://www.inkscape.org/namespaces/inkscape"
   sodipodi:docname="audio-x-generic.svg"
   sodipodi:docbase="/home/tigert/cvs/freedesktop.org/tango-icon-theme/scalable/mimetypes"
   inkscape:version="0.46"
   sodipodi:version="0.32"
   id="svg7032"
   height="48.000000px"
   width="48.000000px"
   inkscape:output_extension="org.inkscape.output.svg.inkscape">
  <defs
     id="defs3">
    <inkscape:perspective
       sodipodi:type="inkscape:persp3d"
       inkscape:vp_x="0 : 24 : 1"
       inkscape:vp_y="0 : 1000 : 0"
       inkscape:vp_z="48 : 24 : 1"
       inkscape:persp3d-origin="24 : 16 : 1"
       id="perspective21" />
    <linearGradient
       inkscape:collect="always"
       id="linearGradient2072">
      <stop
         style="stop-color:#000000;stop-opacity:1;"
         offset="0"
         id="stop2074" />
      <stop
         style="stop-color:#000000;stop-opacity:0;"
         offset="1"
         id="stop2076" />
    </linearGradient>
    <linearGradient
       inkscape:collect="always"
       id="linearGradient2315">
      <stop
         style="stop-color:#ffffff;stop-opacity:1;"
         offset="0"
         id="stop2317" />
      <stop
         style="stop-color:#ffffff;stop-opacity:0;"
         offset="1"
         id="stop2319" />
    </linearGradient>
    <radialGradient
       inkscape:collect="always"
       xlink:href="#linearGradient2315"
       id="radialGradient1358"
       gradientUnits="userSpaceOnUse"
       gradientTransform="matrix(1.000000,-2.843321e-17,5.340760e-18,0.509804,5.770894e-16,16.05392)"
       cx="4.3920336"
       cy="32.307854"
       fx="4.3920336"
       fy="32.307854"
       r="6.3750000" />
    <radialGradient
       inkscape:collect="always"
       xlink:href="#linearGradient2315"
       id="radialGradient1360"
       gradientUnits="userSpaceOnUse"
       gradientTransform="matrix(1.000000,-1.083254e-16,1.454372e-17,0.509804,1.185203e-14,16.05392)"
       cx="4.3920336"
       cy="32.307854"
       fx="4.3920336"
       fy="32.307854"
       r="6.3750000" />
    <radialGradient
       inkscape:collect="always"
       xlink:href="#linearGradient2072"
       id="radialGradient2078"
       cx="23.250000"
       cy="35.375000"
       fx="23.250000"
       fy="35.375000"
       r="18.500000"
       gradientTransform="matrix(1.000000,0.000000,0.000000,0.398649,0.000000,21.27280)"
       gradientUnits="userSpaceOnUse" />
  </defs>
  <sodipodi:namedview
     fill="#9db029"
     inkscape:window-y="160"
     inkscape:window-x="219"
     inkscape:window-height="688"
     inkscape:window-width="810"
     inkscape:showpageshadow="false"
     inkscape:document-units="px"
     inkscape:grid-bbox="true"
     showgrid="false"
     inkscape:current-layer="layer1"
     inkscape:cy="27.236229"
     inkscape:cx="73.976692"
     inkscape:zoom="4"
     inkscape:pageshadow="2"
     inkscape:pageopacity="0.0"
     borderopacity="0.22745098"
     bordercolor="#666666"
     pagecolor="#ffffff"
     id="base" />
  <metadata
     id="metadata4">
    <rdf:RDF>
      <cc:Work
         rdf:about="">
        <dc:format>image/svg+xml</dc:format>
        <dc:type
           rdf:resource="http://purl.org/dc/dcmitype/StillImage" />
        <dc:title>Generic Audio</dc:title>
        <dc:creator>
          <cc:Agent>
            <dc:title>Jakub Steiner</dc:title>
          </cc:Agent>
        </dc:creator>
        <cc:license
           rdf:resource="http://creativecommons.org/licenses/publicdomain/" />
      </cc:Work>
      <cc:License
         rdf:about="http://creativecommons.org/licenses/publicdomain/">
        <cc:permits
           rdf:resource="http://creativecommons.org/ns#Reproduction" />
        <cc:permits
           rdf:resource="http://creativecommons.org/ns#Distribution" />
        <cc:permits
           rdf:resource="http://creativecommons.org/ns#DerivativeWorks" />
      </cc:License>
    </rdf:RDF>
  </metadata>
  <g
     inkscape:groupmode="layer"
     inkscape:label="Layer 1"
     id="layer1">
    <path
       sodipodi:type="arc"
       style="opacity:0.30000000;color:#000000;fill:url(#radialGradient2078);fill-opacity:1.0000000;fill-rule:evenodd;stroke:none;stroke-width:2.0000000;stroke-linecap:round;stroke-linejoin:round;marker:none;marker-start:none;marker-mid:none;marker-end:none;stroke-miterlimit:4.0000000;stroke-dasharray:none;stroke-dashoffset:0.0000000;stroke-opacity:1.0000000;visibility:visible;display:inline;overflow:visible"
       id="path1344"
       sodipodi:cx="23.250000"
       sodipodi:cy="35.375000"
       sodipodi:rx="18.500000"
       sodipodi:ry="7.3750000"
       d="M 41.750000 35.375000 A 18.500000 7.3750000 0 1 1  4.7500000,35.375000 A 18.500000 7.3750000 0 1 1  41.750000 35.375000 z"
       transform="translate(0.000000,2.834646)" />
    <path
       sodipodi:nodetypes="cccccccccccccc"
       id="path7042"
       d="M 41.625000,7.7951523 C 41.625000,7.7951523 18.562500,10.629798 18.562500,10.629798 L 18.562500,32.411048 C 16.916545,31.853397 14.630715,31.707619 12.125000,32.223548 C 7.7686860,33.120517 4.6471398,35.523035 5.1250000,37.567298 C 5.6028601,39.611561 9.5186850,40.558018 13.875000,39.661048 C 17.991641,38.813428 21.559123,36.623246 21.477633,34.661048 L 21.633883,15.629798 C 21.633883,15.629798 38.564340,12.734492 38.564340,12.734492 L 38.564340,30.019106 C 28.314340,28.519106 25.272139,32.912342 25.750000,34.956606 C 26.227860,37.000869 30.143686,37.947325 34.500000,37.050356 C 38.365376,36.254471 41.132410,34.287145 41.406250,32.425356 L 41.625000,7.7951523 z "
       style="color:#000000;fill:#9db029;fill-opacity:1.0000000;fill-rule:nonzero;stroke:#596616;stroke-width:1.0000000;stroke-linecap:round;stroke-linejoin:round;marker:none;marker-start:none;marker-mid:none;marker-end:none;stroke-miterlimit:4.0000000;stroke-dashoffset:0.0000000;stroke-opacity:1.0000000;visibility:visible;display:block" />
    <path
       style="opacity:0.51176471;color:#000000;fill:none;fill-opacity:1.0000000;fill-rule:nonzero;stroke:#ffffff;stroke-width:1.0000000;stroke-linecap:butt;stroke-linejoin:miter;marker:none;marker-start:none;marker-mid:none;marker-end:none;stroke-miterlimit:4.0000000;stroke-dasharray:none;stroke-dashoffset:0.0000000;stroke-opacity:1.0000000;visibility:visible;display:block"
       d="M 40.729036,8.8956383 C 40.729036,8.8956383 19.547267,11.730284 19.547267,11.730284 L 19.547267,33.568621 C 11.982012,31.663311 5.8141632,35.403030 6.2685944,37.347065 C 6.9730255,40.666100 20.646969,38.449299 20.569474,34.208305 L 20.718063,14.735139 C 20.718063,14.735139 39.568437,11.842807 39.568437,11.842807 L 39.568437,31.279973 C 32.002153,29.353326 26.302939,32.656357 26.757371,34.600393 C 27.336802,37.794428 39.135597,36.713755 40.521011,31.943247 L 40.729036,8.8956383 z "
       id="path2311"
       sodipodi:nodetypes="ccccccccccc" />
    <path
       sodipodi:type="arc"
       style="opacity:0.51176471;color:#000000;fill:url(#radialGradient1358);fill-opacity:1.0000000;fill-rule:nonzero;stroke:none;stroke-width:1.0000000;stroke-linecap:butt;stroke-linejoin:miter;marker:none;marker-start:none;marker-mid:none;marker-end:none;stroke-miterlimit:4.0000000;stroke-dasharray:none;stroke-dashoffset:0.0000000;stroke-opacity:1.0000000;visibility:visible;display:block;overflow:visible"
       id="path2313"
       sodipodi:cx="5.8750000"
       sodipodi:cy="32.750000"
       sodipodi:rx="6.3750000"
       sodipodi:ry="3.2500000"
       d="M 12.250000 32.750000 A 6.3750000 3.2500000 0 1 1  -0.50000000,32.750000 A 6.3750000 3.2500000 0 1 1  12.250000 32.750000 z"
       transform="matrix(0.734516,-0.111645,0.111645,0.734516,3.903362,12.22551)" />
    <path
       transform="matrix(0.734516,-0.111645,0.111645,0.734516,23.74587,9.390864)"
       d="M 12.250000 32.750000 A 6.3750000 3.2500000 0 1 1  -0.50000000,32.750000 A 6.3750000 3.2500000 0 1 1  12.250000 32.750000 z"
       sodipodi:ry="3.2500000"
       sodipodi:rx="6.3750000"
       sodipodi:cy="32.750000"
       sodipodi:cx="5.8750000"
       id="path2323"
       style="opacity:0.51176471;color:#000000;fill:url(#radialGradient1360);fill-opacity:1.0000000;fill-rule:nonzero;stroke:none;stroke-width:1.0000000;stroke-linecap:butt;stroke-linejoin:miter;marker:none;marker-start:none;marker-mid:none;marker-end:none;stroke-miterlimit:4.0000000;stroke-dasharray:none;stroke-dashoffset:0.0000000;stroke-opacity:1.0000000;visibility:visible;display:block;overflow:visible"
       sodipodi:type="arc" />
  </g>
</svg>

<?xml version="1.0" encoding="UTF-8" standalone="no"?>
<svg
   xmlns:dc="http://purl.org/dc/elements/1.1/"
   xmlns:cc="http://creativecommons.org/ns#"
   xmlns:rdf="http://www.w3.org/1999/02/22-rdf-syntax-ns#"
   xmlns:svg="http://www.w3.org/2000/svg"
   xmlns="http://www.w3.org/2000/svg"
   xmlns:xlink="http://www.w3.org/1999/xlink"
   xmlns:sodipodi="http://sodipodi.sourceforge.net/DTD/sodipodi-0.dtd"
   xmlns:inkscape="http://www.inkscape.org/namespaces/inkscape"
   version="1.1"
   inkscape:output_extension="org.inkscape.output.svg.inkscape"
   width="48.000000px"
   height="48.000000px"
   id="svg7032"
   sodipodi:version="0.32"
   inkscape:version="1.0beta2 (unknown)"
   sodipodi:docname="audio-x-generic.svg">
  <defs
     id="defs3">
    <inkscape:perspective
       id="perspective21"
       inkscape:persp3d-origin="24 : 16 : 1"
       inkscape:vp_z="48 : 24 : 1"
       inkscape:vp_y="0 : 1000 : 0"
       inkscape:vp_x="0 : 24 : 1"
       sodipodi:type="inkscape:persp3d" />
    <linearGradient
       id="linearGradient2315"
       inkscape:collect="always">
      <stop
         id="stop2317"
         offset="0"
         style="stop-color:#ffffff;stop-opacity:1;" />
      <stop
         id="stop2319"
         offset="1"
         style="stop-color:#ffffff;stop-opacity:0;" />
    </linearGradient>
    <radialGradient
       r="6.3750000"
       fy="32.307854"
       fx="4.3920336"
       cy="32.307854"
       cx="4.3920336"
       gradientTransform="matrix(1.000000,-2.843321e-17,5.340760e-18,0.509804,5.770894e-16,16.05392)"
       gradientUnits="userSpaceOnUse"
       id="radialGradient1358"
       xlink:href="#linearGradient2315"
       inkscape:collect="always" />
    <radialGradient
       r="6.3750000"
       fy="32.307854"
       fx="4.3920336"
       cy="32.307854"
       cx="4.3920336"
       gradientTransform="matrix(1.000000,-1.083254e-16,1.454372e-17,0.509804,1.185203e-14,16.05392)"
       gradientUnits="userSpaceOnUse"
       id="radialGradient1360"
       xlink:href="#linearGradient2315"
       inkscape:collect="always" />
  </defs>
  <sodipodi:namedview
     inkscape:window-maximized="0"
     inkscape:document-rotation="0"
     id="base"
     pagecolor="#ffffff"
     bordercolor="#666666"
     borderopacity="0.22745098"
     inkscape:pageopacity="0.0"
     inkscape:pageshadow="2"
     inkscape:zoom="4"
     inkscape:cx="31.976692"
     inkscape:cy="27.236229"
     inkscape:current-layer="layer1"
     showgrid="false"
     inkscape:grid-bbox="true"
     inkscape:document-units="px"
     inkscape:showpageshadow="false"
     inkscape:window-width="810"
     inkscape:window-height="688"
     inkscape:window-x="219"
     inkscape:window-y="160"
     fill="#9db029" />
  <metadata
     id="metadata4">
    <rdf:RDF>
      <cc:Work
         rdf:about="">
        <dc:format>image/svg+xml</dc:format>
        <dc:type
           rdf:resource="http://purl.org/dc/dcmitype/StillImage" />
        <dc:title>Generic Audio</dc:title>
        <dc:creator>
          <cc:Agent>
            <dc:title>Jakub Steiner</dc:title>
          </cc:Agent>
        </dc:creator>
        <cc:license
           rdf:resource="http://creativecommons.org/licenses/publicdomain/" />
      </cc:Work>
      <cc:License
         rdf:about="http://creativecommons.org/licenses/publicdomain/">
        <cc:permits
           rdf:resource="http://creativecommons.org/ns#Reproduction" />
        <cc:permits
           rdf:resource="http://creativecommons.org/ns#Distribution" />
        <cc:permits
           rdf:resource="http://creativecommons.org/ns#DerivativeWorks" />
      </cc:License>
    </rdf:RDF>
  </metadata>
  <g
     id="layer1"
     inkscape:label="Layer 1"
     inkscape:groupmode="layer">
    <path
       inkscape:connector-curvature="0"
       style="color:#000000;display:block;visibility:visible;fill:#9db029;fill-opacity:1;fill-rule:nonzero;stroke:#596616;stroke-width:1;stroke-linecap:round;stroke-linejoin:round;stroke-miterlimit:4;stroke-dashoffset:0;stroke-opacity:1;marker:none;marker-start:none;marker-mid:none;marker-end:none"
       d="m 41.625,7.7951523 c 0,0 -23.0625,2.8346457 -23.0625,2.8346457 v 21.78125 c -1.645955,-0.557651 -3.931785,-0.703429 -6.4375,-0.1875 -4.356314,0.896969 -7.4778602,3.299487 -7,5.34375 0.4778601,2.044263 4.393685,2.99072 8.75,2.09375 4.116641,-0.84762 7.684123,-3.037802 7.602633,-5 l 0.15625,-19.03125 c 0,0 16.930457,-2.895306 16.930457,-2.895306 v 17.284614 c -10.25,-1.5 -13.292201,2.893236 -12.81434,4.9375 0.47786,2.044263 4.393686,2.990719 8.75,2.09375 3.865376,-0.795885 6.63241,-2.763211 6.90625,-4.625 z"
       id="path7042"
       sodipodi:nodetypes="cccccccccccccc" />
    <path
       inkscape:connector-curvature="0"
       sodipodi:nodetypes="ccccccccccc"
       id="path2311"
       d="m 40.729036,8.8956383 c 0,0 -21.181769,2.8346457 -21.181769,2.8346457 V 33.568621 C 11.982012,31.663311 5.8141632,35.40303 6.2685944,37.347065 6.9730255,40.6661 20.646969,38.449299 20.569474,34.208305 l 0.148589,-19.473166 c 0,0 18.850374,-2.892332 18.850374,-2.892332 v 19.437166 c -7.566284,-1.926647 -13.265498,1.376384 -12.811066,3.32042 0.579431,3.194035 12.378226,2.113362 13.76364,-2.657146 z"
       style="color:#000000;display:block;visibility:visible;opacity:0.511765;fill:none;fill-opacity:1;fill-rule:nonzero;stroke:#ffffff;stroke-width:1;stroke-linecap:butt;stroke-linejoin:miter;stroke-miterlimit:4;stroke-dasharray:none;stroke-dashoffset:0;stroke-opacity:1;marker:none;marker-start:none;marker-mid:none;marker-end:none" />
    <ellipse
       ry="3.25"
       rx="6.375"
       cy="32.75"
       cx="5.875"
       transform="matrix(0.734516,-0.111645,0.111645,0.734516,3.903362,12.22551)"
       id="path2313"
       style="color:#000000;display:block;overflow:visible;visibility:visible;opacity:0.511765;fill:url(#radialGradient1358);fill-opacity:1;fill-rule:nonzero;stroke:none;stroke-width:1;stroke-linecap:butt;stroke-linejoin:miter;stroke-miterlimit:4;stroke-dasharray:none;stroke-dashoffset:0;stroke-opacity:1;marker:none;marker-start:none;marker-mid:none;marker-end:none" />
    <ellipse
       ry="3.25"
       rx="6.375"
       cy="32.75"
       cx="5.875"
       style="color:#000000;display:block;overflow:visible;visibility:visible;opacity:0.511765;fill:url(#radialGradient1360);fill-opacity:1;fill-rule:nonzero;stroke:none;stroke-width:1;stroke-linecap:butt;stroke-linejoin:miter;stroke-miterlimit:4;stroke-dasharray:none;stroke-dashoffset:0;stroke-opacity:1;marker:none;marker-start:none;marker-mid:none;marker-end:none"
       id="path2323"
       transform="matrix(0.734516,-0.111645,0.111645,0.734516,23.74587,9.390864)" />
  </g>
</svg>
